!!!COM:	Josquin des Pres
**kern	**kern
*part2	*part1
*staff2	*staff1
*clefGv2	*clefG2
*k[]	*k[]
*M2/1	*M2/1
=1-	=1-
[0e	0b
=2	=2
1e_	1cc
1e_	2b
.	[2cc
=3	=3
1e]	4cc]
.	4b
.	2g
1d	2a
.	2b
=4	=4
1.c	1e
.	1r
2A	.
=5	=5
1B	1g
1r	2a
.	[2b
=6	=6
[0e	2b]
.	2cc
.	2b
.	[2cc
=7	=7
0e]	2cc]
.	4b
.	4a
.	2g
.	2c
=8	=8
1d	2d
.	2f
[1c	1e
=9	=9
2c]	1r
2A	.
1B	1g
=10	=10
2r	2a
2e	2g
2d	2a
2c	[2cc
=11	=11
1A	2cc]
.	4b
.	4a
2B	1g
[2e	.
=12	=12
4e]	1c
4d	.
2c	.
2A	2r
2B	2g
=13	=13
2r	2a
2.e	1g
4d	.
2c	2e
=14	=14
2A	2f
2B	[2g
1e	2g]
.	2cc
=15	=15
2d	2b
2c	2.a
2A	.
.	4g
2B	[2g
=16	=16
2e	2g]
2.d	2f
.	2e
4c	.
2A	2c
=17	=17
1B	1d
1e	2r
.	2c
=18	=18
2d	2d
2c	2.e
2A	.
.	4c
2B	2d
=19	=19
2r	2e
2e	2c
2d	2d
2c	2e
=20	=20
2A	2f
2B	[2g
1e	2g]
.	2c
=21	=21
2d	2d
2c	2e
2A	2f
2B	2g
=22	=22
2r	2a
2e	2c
2d	2d
2c	2e
=23	=23
2A	2f
2B	2g
2r	2a
[2e	2b
=24	=24
2e]	2cc
2d	2.b
2c	.
.	4a
2A	[2a
=25	=25
2B	2a]
1e	2g
.	1f
2d	.
=26	=26
2c	1e
2A	.
2B	2d
[2e	2c
=27	=27
2e]	1B
2d	.
4c	2A
4A	.
2B	2d
=28	=28
2e	2c
2d	2f
2c	2e
!LO:TX:B:t=3	!
2A	2a
=29	=29
3B	2g
3.e	.
.	[2cc
6d	.
3%2d	4cc]
.	4b
.	[2a
3c	.
=30	=30
3A	2a]
3%2B	.
.	2g
3%2.A	1a
==	==
*-	*-
